X:8
T:Scollay's Reel
C:Trad.(from Vt.)
M:4/4
L:1/8
Q:1/2=116
K:Em
 |: E2 EF G2 A2 | BcBA GFGA | B2 E2 E2 G2 | FGAF D2 F2 |
     E2 EF G2 A2 | BABd e2 d2 | B2 Bc BAGF | G2 E2 E4 :||
 |:  efge B2 B2 | g2 g2 B2 B2 | c2 BA G2 G2 | FGAF D2 F2 |
     E2 EF G2 A2 | BABd e2 d2 | B2 Bc BAGF | G2 E2 E4 :||
